X:470
T:Humours Of Glendart
R: Jig
M:6/8
L:1/8
N:traditional
K: Amix
A|:"D"BAF "A"AFE|FED "A"EFA|BAF "A"AFE|"Em"FEE E2A|
"D"BAF "A"AFE|"D"FED FAB|"G"dcB "A"AFE|"D"FDD D2A:|
"D"def d2B|"A"ABA AFA|"D"def d2d|"Em"ede "D"fdB|
"D"def edB|dBA "A"ABc|"G"dcB "A"AFE|"D"FDD D2A:||

%%scale 0.8
%%newpage

